X: 1687
T: O'Donnell's Hornpipe
M:4/4
L:1/8
B:O'Neill's 1687
N:"collected by Delaney"
K:G
B>c \
| d>g (3gfe d>Be>d | B>GD>BA2A>G | F>GA>Bc>de>f | (3gba (3gfe d2 B>c |
| dg(3gfed>Be>d | B>GD>B A2A>G | F>GA>Bc>de>f | g>fg>ag2 :|
|: e>f \
| g>ba>gf>ag>f | e>f(3gfe f>dB>d | g>ba>gf>ag>f | e>f(3gfe e2B2 |
| (3ccc A>c (3BBB G>B | (3AAAF>AE>FD2 | D>EF>GA>Bc>A | (3GBd (3gdB G2 :|


